svg/UnitedNationsOCHA-Humanitarian/disaster_storm_icon_box.svg

<svg xmlns="http://www.w3.org/2000/svg" viewBox="0 0 32 32" enable-background="new 0 0 32 32"><path fill="#407cca" d="m25.6 0h-19.2c-3.52 0-6.4 2.88-6.4 6.4v19.2c0 3.522 2.88 6.4 6.4 6.4h19.2c3.521 0 6.4-2.878 6.4-6.4v-19.2c0-3.52-2.88-6.4-6.4-6.4m-14.616 28l3.547-6.21h-3.547c.023 0 2.13-2.115 3.428-3.421h4.426l-2.534 2.533h2.661l-7.981 7.098m12.407-10.694c-.177 0-1.852 0-4.07 0-1.347 0-2.889 0-4.431 0-3.891 0-7.733 0-8.13 0-1.43 0-2.587-.542-2.587-1.972 0-1.428 1.158-2.587 2.587-2.587.259 0 .506.051.746.123 0-.02-.006-.04-.006-.061 0-1.666 1.352-3.02 3.02-3.02.069 0 .138.016.207.021-.003-.07-.022-.135-.022-.206-.002-3.097 2.507-5.606 5.604-5.606 2.796 0 5.097 2.056 5.519 4.734.486-.185 1.012-.299 1.564-.299 2.451 0 4.438 1.985 4.438 4.435-.0001 2.451-1.987 4.436-4.438 4.436"/></svg>

<?xml version="1.0" encoding="utf-8"?>
<!-- Generator: Adobe Illustrator 16.0.3, SVG Export Plug-In . SVG Version: 6.00 Build 0)  -->
<!DOCTYPE svg PUBLIC "-//W3C//DTD SVG 1.1//EN" "http://www.w3.org/Graphics/SVG/1.1/DTD/svg11.dtd">
<svg version="1.1" id="Layer_1" xmlns="http://www.w3.org/2000/svg" xmlns:xlink="http://www.w3.org/1999/xlink" x="0px" y="0px"
	 width="32px" height="32px" viewBox="0 0 32 32" enable-background="new 0 0 32 32" xml:space="preserve">
<path fill="#407CCA" d="M25.6,0H6.4C2.88,0,0,2.88,0,6.4v19.2C0,29.122,2.88,32,6.4,32h19.2c3.521,0,6.4-2.878,6.4-6.4V6.4
	C32,2.88,29.12,0,25.6,0z M10.984,28l3.547-6.21h-3.547c0.023,0,2.13-2.115,3.428-3.421h4.426l-2.534,2.533h2.661L10.984,28z
	 M23.391,17.306c-0.177,0-1.852,0-4.07,0c-1.347,0-2.889,0-4.431,0c-3.891,0-7.733,0-8.13,0c-1.43,0-2.587-0.542-2.587-1.972
	c0-1.428,1.158-2.587,2.587-2.587c0.259,0,0.506,0.051,0.746,0.123c0-0.02-0.006-0.04-0.006-0.061c0-1.666,1.352-3.018,3.019-3.018
	c0.069,0,0.138,0.016,0.207,0.021c-0.003-0.07-0.022-0.135-0.022-0.206C10.702,6.509,13.211,4,16.308,4
	c2.796,0,5.097,2.056,5.519,4.734c0.486-0.185,1.012-0.299,1.564-0.299c2.451,0,4.438,1.985,4.438,4.435
	C27.828,15.321,25.842,17.306,23.391,17.306z"/>
</svg>
